X: 28570
T: Murphy's
R: hornpipe
M: 4/4
K: Gmajor
GABG EFGE|ABcA "(*)"DFAF|G2dg ecAG|FGAF DcBA|
GzBG EFGE|ABcA DFAF|G2dg ecAF|1 "r"G3F G3D:|2 "r"G3F G3B||
|:dedc Bcdg|(3efg ed ^cdef|g2gd ecAG|"(**)"FGAF DcBA|
GzBG EFGE|ABcA DFAF|G2dg ecAF|1 "r"G3F G3B:|2 G2BA G4||

